X:1
T:Title
%%score { ( 1 3 4 ) | ( 2 5 ) }
L:1/8
M:4/4
K:D
V:1 treble nm="Grand Piano"
V:3 treble 
V:4 treble 
V:2 bass 
V:5 bass 
V:1
 z4 z2[Q:1/4=100] [DF]2 | [EG]2 [EA]2 [EF]2 [Dd]2 | G4 z4 | [E^G]2 [EA]2 [Dd]2 [B,FB]2 | %4
[M:3/4] [CEA]2 [D^GB]2 [CA]2 |[M:1/4] c2 |[M:4/4] d2 e2 A2 d2 | G4 z4 | %8
 [DG]2 [D=c]2 [DB]2 [B,DE]2 |[M:3/4] [DF]2 z2[K:bass] z2 |] %10
V:2
 z4 z2 [D,A,]2 | [D,B,]2 [C,A,]2 [D,A,]2 [B,,B,]2 | [E,B,D]2 [A,,A,]2 [D,A,D]2 [D,A,D]2 | %3
 [D,B,]2 [C,A,]2 [B,,B,]2 D,2 |[M:3/4] E,2 E,2 A,,2 |[M:1/4][K:treble] [A,EA]2 | %6
[M:4/4] [A,B,F]2[K:bass] [G,B,E]2 [G,CE]2 [F,D]2 | B,3 B, [F,^A,C]2 [B,,B,]2 | %8
 [B,,G,]2 [A,,F,]2 [G,,G,]2 G,,2 |[M:3/4] A,,2 z G, D,2 |] %10
V:3
 x8 | x8 | z2 z F F2 F2 | x8 |[M:3/4] x6 |[M:1/4] x2 |[M:4/4] x8 | z2 z G F2 [DF]2 | x8 | %9
[M:3/4] A,2- [A,CE]2[K:bass] [F,D]2 |] %10
V:4
 x8 | x8 | z2 C2 z4 | x8 |[M:3/4] x6 |[M:1/4] x2 |[M:4/4] x8 | z2 C2 z4 | x8 | %9
[M:3/4] x4[K:bass] x2 |] %10
V:5
 x8 | x8 | x8 | x8 |[M:3/4] x6 |[M:1/4][K:treble] x2 |[M:4/4] x2[K:bass] x6 | [E,D]2 E,2 z4 | x8 | %9
[M:3/4] z2 A,,2 z2 |] %10

